X:1142
T:Polska ur Sven Donats notbok
T:Komponerad den 17 april 1783 (MA5-8)
C:Sven Donat
R:Polska
O:Småland
N:[[http://www.smus.se/earkiv/fmk/browsevol.php?lang=sw&katalogid=Ma+5&bildnr=00010|MA5, låt 8, sida 10]]
B:Sven Donats notbok
Z:Jonas Brunskog
M:3/4
L:1/16
K:C
|:CFGc edcB c4|G,2ag (g2Pfg) f2e2|gagf egab c'2e'2|
gage fafd egec|CG,CE GEGc eceg|afdB c4c4:|
|:[G,G]BdB [G,G]BdB [G,G]2g2| gage fafd egec|GAGF EGAB (c2Pe2)|
GAGE FAFD EGEC|G,2G,A, B,A,B,C DCDF|FEFG AGAB (c2Pe2)|
gage fafd (e2Pc2)|CDEF GABc defa|fdBG c4 c4:|
(:musicend:)

(:music:)
